X:1
T:Title
%%score { ( 1 3 ) | ( 2 4 ) }
L:1/8
M:4/4
K:Eb
V:1 treble nm="Grand Piano"
V:3 treble 
V:2 bass 
V:4 bass 
V:1
 z4 z2[Q:1/4=100] E2 | G G2 G G2 E>G | [GB] [GB]2 [_G=A] [=GB]2 [EG]2 | %3
 [DF] [DF]2 [EG] [FA]2 [DAc]2 | [EAc] [EGB]2 [C_G=A] [B,=GB]2 E2 | G G2 G G2 E>G | %6
 [GB] [GB]2 [Ac] [GB]2 E2 | GG z G [A,DF][G,E] z [A,DF] |[M:3/4] [G,E]6 |[M:1/4] [EB]2 | %10
[M:4/4] [Ge] [Ge]2 [Ge] [Ge]2 [Ac][GB] | [Ac] [GB]2 [_G=A] [=GB]2 G2 | F F2 e d B2 c | %13
 B- [DB-]2 [EB-] [FB]2 [B,AB]2 | [Ge] [Ge]2 [Ae] [Ge]2 [GB]>[GB] | %15
 [EAc] [EAc]2 [EAe] [EGB]2 [G,E]2 | [B,EG][B,EG] z [B,EG] [A,DF][G,E] z [A,DF] |[M:3/4] [G,E]6 |] %18
V:2
 z4 z2 [E,G,]2 | [E,B,E] [E,B,E]2 [E,B,E] [E,B,E]2 [E,G,]>[E,B,E] | %2
 [E,E] [E,E]2 [E,E] [E,E]2 [E,B,]2 | [B,,B,] [B,,B,]2 [B,,B,] [B,,B,]2 B,,2 | %4
 E, E,2 E, E,2 [E,G,]2 | [E,B,E] [E,B,E]2 [E,B,E] [E,B,E]2 [E,G,]>[E,B,E] | %6
 [E,E] [E,E]2 [E,E] [E,E]2 [E,G,]2 | [E,B,E][E,B,E] z [E,B,E] B,,B,, z B,, |[M:3/4] E,6 | %9
[M:1/4] [E,G,]2 |[M:4/4] [E,B,] [E,B,]2 [E,B,] [E,B,]2 [E,E]2 | %11
 [E,E] [E,E]2 [E,E] [E,E]2 [E,B,E]2 | [F,B,D] [F,B,D]2 [F,=A,G] [F,B,F] [F,B,D]2 [F,A,E] | %13
 z F,2 G, A,2 D,2 | [E,B,] [E,B,]2 [E,C] [E,B,]2 [E,E]>[E,E] | A,, A,,2 C, E,2 E,2 | %16
 E,E, z E, B,,B,, z B,, |[M:3/4] E,6 |] %18
V:3
 x8 | x8 | x8 | x8 | x8 | x8 | x8 | x8 |[M:3/4] x6 |[M:1/4] x2 |[M:4/4] x8 | x8 | x8 | %13
 .[B,D]2 z2 z4 | x8 | x8 | x8 |[M:3/4] x6 |] %18
V:4
 x8 | x8 | x8 | x8 | x8 | x8 | x8 | x8 |[M:3/4] x6 |[M:1/4] x2 |[M:4/4] x8 | x8 | x8 | B,,6 z2 | %14
 x8 | x8 | x8 |[M:3/4] x6 |] %18

